X: 20552
M: C|
L: 1/8
K: D
|: g |\
fedf gfea | cAeA fAef | fedf gfea | cAef d/d/ddg |\
fedf gfea | cAeA fAeg | fdge afbg | fdef d/d/d d :|


